X: 1
T: The Three Sheepskins
T: 8x40J 3C
P: Hamilton Races (Neil Gow)
C: arr. T. Traub 8-21-2014
R: jig
M: 6/8
L: 1/8
K: D
|:A|"D"FAA d2 f|"A"ecA A2 d|"G"BdB "D"AdF|"Em"GEE "A"E2 A|"D"FAA d2 f|"A"eac "G"d2 B|"E"cfe dcB|"A"AAA A2 :|
|: cd |"A"ecA Ace|"D"fed cBA|"G"dbd "A"cac|"Bm"dBB B2 F/E/|"D"DFA d2 f|"A"eac "G"d2 B|"D"AdF "A"GEA|"D"FDD D2 :|
